ressources/icons/document-save-as.svg

<svg height="16" viewBox="0 0 16 16" width="16" xmlns="http://www.w3.org/2000/svg"><path d="m4-.00000015s-1 0-1 1v11.00000015c0 1 1 1 1 1h11s1 0 1-1v-9.9999998l-2-2.00000035h-9zm2 1h7v4.00000035c0 1-1 1-1 1h-5s-1 0-1-1c0-1.333334 0-2.666667 0-4.00000035zm4 1.00000035v3h2v-3zm-9 2c-1 0-1 1-1 1v9.9999998c0 1 1 1 1 1h11s1 0 1-1v-1h-11v-9.9999998zm5 3h7s1 0 1 1v3.9999998h-9v-3.9999998c0-1 1-1 1-1z" fill="#404040"/></svg>

<?xml version="1.0" encoding="UTF-8" standalone="no"?>
<svg
   xmlns:dc="http://purl.org/dc/elements/1.1/"
   xmlns:cc="http://creativecommons.org/ns#"
   xmlns:rdf="http://www.w3.org/1999/02/22-rdf-syntax-ns#"
   xmlns:svg="http://www.w3.org/2000/svg"
   xmlns="http://www.w3.org/2000/svg"
   xmlns:sodipodi="http://sodipodi.sourceforge.net/DTD/sodipodi-0.dtd"
   xmlns:inkscape="http://www.inkscape.org/namespaces/inkscape"
   width="16"
   height="16"
   viewBox="0 0 16 16"
   version="1.1"
   id="svg7"
   sodipodi:docname="document-save-as.svg"
   inkscape:version="0.92.3 (2405546, 2018-03-11)">
  <metadata
     id="metadata11">
    <rdf:RDF>
      <cc:Work
         rdf:about="">
        <dc:format>image/svg+xml</dc:format>
        <dc:type
           rdf:resource="http://purl.org/dc/dcmitype/StillImage" />
      </cc:Work>
    </rdf:RDF>
  </metadata>
  <sodipodi:namedview
     pagecolor="#ffffff"
     bordercolor="#666666"
     borderopacity="1"
     objecttolerance="10"
     gridtolerance="10"
     guidetolerance="10"
     inkscape:pageopacity="0"
     inkscape:pageshadow="2"
     inkscape:window-width="1920"
     inkscape:window-height="1012"
     id="namedview9"
     showgrid="false"
     inkscape:zoom="14.75"
     inkscape:cx="8"
     inkscape:cy="8"
     inkscape:window-x="0"
     inkscape:window-y="0"
     inkscape:window-maximized="1"
     inkscape:current-layer="svg7">
    <inkscape:grid
       type="xygrid"
       id="grid824" />
  </sodipodi:namedview>
  <defs
     id="defs3">
    <style
       id="current-color-scheme"
       type="text/css">
   .ColorScheme-Text { color:#404040; } .ColorScheme-Highlight { color:#5294e2; }
  </style>
  </defs>
  <path
     style="fill:#404040;fill-opacity:1"
     d="m 4,-1.5e-7 c 0,0 -1,0 -1,1 V 12 c 0,1 1,1 1,1 h 11 c 0,0 1,0 1,-1 V 2.0000002 L 14,-1.5e-7 H 5 Z m 2,1 h 7 c 0,1.33333335 0,2.66666635 0,4.00000035 0,1 -1,1 -1,1 H 7 c 0,0 -1,0 -1,-1 0,-1.333334 0,-2.666667 0,-4.00000035 z m 4,1.00000035 v 3 h 2 v -3 z m -9,2 c -1,0 -1,1 -1,1 V 15 c 0,1 1,1 1,1 h 11 c 0,0 1,0 1,-1 V 14 H 2 V 4.0000002 Z m 5,3 h 7 c 0,0 1,0 1,1 V 12 H 5 V 8.0000002 c 0,-1 1,-1 1,-1 z"
     id="path2"
     inkscape:connector-curvature="0"
     sodipodi:nodetypes="cssccsccccccccccccccccscsccscccsccsccsc" />
</svg>
